X:1
T:Io son amore
T: 
T:Io son amore
T:Luca Marenzio (1556 - 1599) 
T:594
T:Il secondo Libro delle canzonette alla Napolitana a tre voci (Venetia, 1587) 
C:Luca Marenzio
%%score [ 1 2 3 ]
L:1/8
Q:1/4=120
M:4/4
K:C
V:1 treble nm="Sopran" snm="S"
V:2 treble nm="Alt" snm="A"
V:3 bass nm="Bass" snm="B."
V:1
 d4 c2 c2 | B4 B2 e2- | ed e2 d4 |1[M:2/4] c4 ::[M:4/4] c2 e2 (dcde | d2) B2 (cBAB | c4) c3 d | %7
w: Io son A-|mo- re, pie-|* no d'ar- do-|re,|re, con stra- * * *|* lie l'ar- * * *|* co, di|
w: Son cie- co'e|gnu- do, a|_ la- toe cru-|do,|do, pic- ciol _ _ _|_ Gar- zo- * * *|* ne, sen-|
w: Mil- le tor-|men- ti e|_ tra- di- men-|ti,|ti, as- tu- * * *|* ti'ein- gan- * * *|* ni mar-|
w: Mi- ser a-|man- ti, ch'o-|* gn'ho- rain pian-|ti,|ti, fiam- m'e _ _ _|_ so- spi- * * *|* ri, lac-|
 B3 c A4 | A4 z2 d2- | d2 e>e e2 d2 | c4 B4 | e8 | d8 | c8 | B8 | A4 d2 c2- | c2 B2 A3 B | %17
w: lac- ci car-|co, ch'o-|* gnia- ni- ma vi-|ven- te,|in|fo-|co'ar-|den-|te, mar- tir|_ li do, et|
w: za ra- gio-|ne, che|_ sot- to la mia|leg- ge|cias-|cun|si|reg-|ge, e schia-|* vo sta, in|
w: tir eaf- fan-|ni, a|* mi- se- ri mor-|ta- li,|do|con|li|stra-|li pri- vo|_ di fè e|
w: cie mar- ti-|ri, se-|da me * ca- te-|na- ti,|da|me|pia-|ga-|ti, sof- fri-|* te'hor- su ne|
 G3 G A3 A | G8 :| %19
w: in vi- si- bil|vo.|
w: gran ca- la- mi-|tà.|
w: con po- ca mer-|ce.|
w: vi do- le- te|piu.|
V:2
 z2 G2 E2 ^F2 | G4 G2 c2- | cA c2 B4 |1[M:2/4] c4 ::[M:4/4] c2 c2 (BABc | B2) G2 (AGFG | %6
w: Io son A-|mo- re, pie-|* no d'ar- do-|re,|re, con stra- * * *|* lie l'ar- * * *|
w: Son cie- co'e|gnu- do, a|_ la- toe cru-|do,|do, pic- ciol _ _ _|_ Gar- zo- * * *|
w: Mil- le tor-|men- ti e|_ tra- di- men-|ti,|ti, as- tu- * * *|* ti'ein- gan- * * *|
w: Mi- ser a-|man- ti, ch'o-|* gn'ho- rain pian-|ti,|ti, fiam- m'e _ _ _|_ so- spi- * * *|
 A4) A2 A2 | G3 G ^F4 | ^F4 z2 B2 | c3 c c2 B2 | A4 ^G4 | c8 | (B2 AG A4) | A8 | G8 | ^F4 G2 E2- | %16
w: * co, di|lac- ci car-|co, ch'o-|gnia- ni- ma vi-|ven- te,|in|fo- * * *|co'ar-|den-|te, mar- tir|
w: * ne, sen-|za ra- gio-|ne, che|sot- to la mia|leg- ge|cias-|cun * * *|si|reg-|ge, e schia-|
w: * ni mar-|tir eaf- fan-|ni, a|mi- se- ri mor-|ta- li,|do|con * * *|li|stra-|li pri- vo|
w: * ri, lac-|cie mar- ti-|ri, se-|me * ca- te-|na- ti,|da|me * * *|pia-|ga-|ti, sof- fri-|
 E2 G2 ^F3 G | E3 G ^F3 F | G8 :| %19
w: _ li do, et|in vi- si- bil|vo.|
w: * vo sta, in|gran ca- la- mi-|tà.|
w: _ di fè e|con po- ca mer-|ce.|
w: * te'hor- su ne|vi do- le- te|piu.|
V:3
 G,4 A,2 A,2 | G,4 G,2 C,2- | C,D, C,2 G,4 |1[M:2/4] C,4 ::[M:4/4] C,2 C,2 G,4 | G,4 F,4- | %6
w: Io son A-|mo- re, pie-|* no d'ar- do-|re,|re, con stra-|lie l'ar-|
w: Son cie- co'e|gnu- do, a|_ la- toe cru-|do,|do, pic- ciol|Gar- zo-|
w: Mil- le tor-|men- ti e|_ tra- di- men-|ti,|ti, as- tu-|ti'ein- gan-|
w: Mi- ser a-|man- ti, ch'o-|* gn'ho- rain pian-|ti,|ti, fiam- m'e|so- spi-|
 F,4 F,2 F,2 | E,3 E, D,4 | D,4 z2 G,2 | C,3 C, C,2 G,,2 | A,,4 E,4 | C,2 (C,3 D, E,F, | %12
w: * co, di|lac- ci car-|co, ch'o-|gnia- ni- ma vi-|ven- te,|in fo- * * *|
w: * ne, sen-|za ra- gio-|ne, che|sot- to la mia|leg- ge|cias- cun _ _ _|
w: * ni mar-|tir eaf- fan-|ni, a|mi- se- ri mor-|ta- li,|do con _ _ _|
w: * ri, lac-|cie mar- ti-|ri, se-|me * ca- te-|na- ti,|da me * * *|
 G,2) (D,3 E, F,G, | A,2) (A,,3 B,, C,D, | E,D,E,F, G,4) | D,4 B,,2 C,2- | C,2 E,2 D,3 B,, | %17
w: * co'ar- * * *|* den- * * *||te, mar- tir|_ li do, et|
w: _ si _ _ _|_ reg- * * *||ge,- e schia-|* vo sta, in|
w: _ li * * *|* stra- * * *||li- pri- vo|_ di fè e|
w: * pia- * * *|* ga- * * *||ti, sof- fri-|* te'hor- su ne|
 C,3 E, D,3 D, | G,,8 :| %19
w: in vi- si- bil|vo.|
w: gran ca- la- mi-|tà.|
w: con po- ca mer-|ce.|
w: vi do- le- te|piu.|

